X:3412
T:Lisslissa
R:Polska
Q:96
O:Rättvik, Dalarna
G:Fiol
H:Låten är Anna Larssons brudpolska
S:Lars Ljunggren
Z: Lars Ljunggren
M:3/4
L:1/16
K:A
E4A3c e3c|B3c d2B2 A2Bc |d4F2d2 f2a2 |g3a g2fg e2fg|
a3e f4 d3e|cAce f4 d3e|cAce fedc B3A |1G2BG A8:|2 G2BG A6 a2|
|:g2bg a4 e3e|f2d2 c6 (3ABc|d3c B4 g3f |ed3 e6d2|cABc d4c4|
B^dfb a2g2 f2e2|a3c d4 f3e|1dBGB A6a2:|2dBGB A8|
(:musicend:)
(:music:)
